X:1
T:Faemina peccatrix
T:Daniel Friderici
T:Source : Bicinia sacra---Rostock---J.Richelius---1642. Editor : André Vierendeels (11/07/17).
T:Notes : Original clefs : C1, C1 Editorial accidentals above  the staff
T:Faemina peccatrix
T:©
T:©
T:©
C:Daniel Friderici
Z:©
%%score [ 1 2 ]
L:1/8
Q:1/4=120
M:2/2
K:C
V:1 treble nm="Soprano 1" snm="S 1"
V:2 treble nm="Soprano 2" snm="S 2"
V:1
 A6 A2 | ^G4 A4 | F8 | E4 D4 | A8 | ^G4 A4- | A2 F2 c4 | B4 c4- | c2 A2 FGAF | G3 G F4 | %10
w: Fae- mi-|na pec-|ca-|trix, pec-|ca-|trix do-||let, ac-|* tae cri- * * *||
w: |||||||||* mi- na,|
 z2 c3 BcA | B3 B c4 | A2 FG AGAF | G4 F4 | F2 DE FEFE | E2 C2 D2 E2 | F2 G2 A2 F2 | G2 A2 B2 G2 | %18
w: ||||||||
w: cri- * * *|* mi- na,|vi- * * * * * *|* tae,|vi- * * * * * *||||
 A2 B2 c2 BA | B8 | A8 :: d4 A4 | z4 c4- | c2 B2 A2 B2 | c2 d2 e4 | A8 | z4 c4 | A2 G2 A2 F2- | %28
w: ||||||||||
w: ||tae:|Fae- lix,|Fae-|||lix,|qui|ve- * * *|
 F2 ED EDEC | DFED E4 |"^#" F4 ^G4 | z4 A4 | z4 B4 | z2 e2 d2 B2 | c2 A2 B4 | E4 z2 c2 | %36
w: ||||||||
w: ||ra, flet,|flet,|flet|flet su- a|stu- pra fi-|de, flet|
 G2 A2 E3 F | G2 D2 E3 C | D2 E2 F4 | E8 |] %40
w: ||||
w: sua stu- * *|* pra fi- *||de.|
V:2
 z8 | z8 | A6 A2 | ^G4 A4 | F8 | E4 D4 | A8 | ^G4 A4- | A2 F2 c4 | B4 c4- | c2 A2 FGAF | G3 G F4 | %12
w: ||Fae- mi-|na pec-|ca-|trix, pec-|ca-|trix do-||let, a-|* ctae cri- * * *|* mi- na,|
 z2 c3 BcA | B3 B c4 | A2 FG AGAF | G4 F4 | D2 E2 F2 D2 | E2 F2 G2 E2 | F2 G2 A4- | A2 ^G^F G4 | %20
w: cri- * * *|* mi- na,|vi- * * * * * *|* tae,|vi- * * *||||
 A8 :: z8 | d4 A4 | z4 c4- | c2 B2 A2 B2 | c2 d2 e4 | A8 | z4 c4 | A2 GF GFGE | FDEF G4 | F4 z4 | %31
w: tae:||Fae- lix,|Fae-|||lix,|qui|ve- * * * * * *||ra,|
 ^G4 z4 | A4 z4 | E4 G2 G2 | F4 E4 | z2 B2 c2 A2 | B2 c2 B4 | E2 A2 G2 E2 | F2 C2 D4 | E8 |] %40
w: flet,|flet,|flet, su a|stu- pra,|flet su- a|stu- pra fi-|de, flet su- a|stu pra fi-|de.|

